build/assets/img/svg/modals-check.svg

<svg width="193" height="200" viewBox="0 0 193 200" fill="none" xmlns="http://www.w3.org/2000/svg">
<path d="M178.137 29.9595L170.688 25.9109C171.173 25.9109 171.659 25.9109 172.145 25.9109L179.594 29.9595C179.27 29.9595 178.785 29.9595 178.137 29.9595Z" fill="#40689D"/>
<path d="M179.757 30.1215L172.307 26.0729C172.469 26.0729 172.793 26.2349 172.955 26.3968L180.404 30.4454C180.08 30.1215 179.918 30.1215 179.757 30.1215Z" fill="#40689D"/>
<path d="M180.404 30.2834L172.955 26.2348H173.117L180.404 30.2834Z" fill="#40689D"/>
<path d="M99.1087 148.016L91.6593 143.968C91.1735 143.644 90.6877 143.32 90.3638 142.672L97.8132 146.721C98.137 147.207 98.6229 147.692 99.1087 148.016Z" fill="#40689D"/>
<path d="M103.157 138.138L94.5742 131.822L167.449 28.0162L174.898 32.0648L103.157 138.138Z" fill="#40689D"/>
<path d="M97.6514 146.721L90.364 142.672L61.0522 95.7086L69.9591 97.9758L97.6514 146.721Z" fill="#40689D"/>
<path d="M174.899 32.0648L165.344 30.9312C165.506 30.7693 167.773 27.6923 167.773 27.5304L175.223 31.579C175.061 31.7409 175.061 31.9029 174.899 32.0648Z" fill="#40689D"/>
<path d="M174.089 33.1984L167.773 27.5304C167.935 27.3684 169.231 25.4251 172.308 26.0729L180.405 30.4454C180.243 30.6073 174.737 32.7126 174.575 32.8745" fill="#40689D"/>
<path d="M175.709 31.0931L168.259 27.0445C168.421 26.8825 168.583 26.7206 168.745 26.5587L176.195 30.6072C176.033 30.9311 175.871 31.0931 175.709 31.0931Z" fill="#40689D"/>
<path d="M176.195 30.7693L168.745 26.7207C168.907 26.5587 169.231 26.3968 169.393 26.3968L176.842 30.4454C176.68 30.4454 176.518 30.6073 176.195 30.7693Z" fill="#40689D"/>
<path d="M177.004 30.2834L169.555 26.2348C170.041 26.0729 170.364 25.9109 170.85 25.9109L178.3 29.9595C177.814 29.9595 177.328 30.1215 177.004 30.2834Z" fill="#40689D"/>
<path d="M68.5018 99.7571L61.0524 95.7085C60.2427 94.413 60.2427 92.9555 60.7285 91.498L68.1779 95.5466C67.6921 97.0041 67.6921 98.4615 68.5018 99.7571Z" fill="#40689D"/>
<path d="M68.1784 95.5466L60.729 91.498C60.8909 91.1741 60.8909 91.0122 61.0529 90.8502L68.5023 94.8988C68.3403 95.0607 68.1784 95.2227 68.1784 95.5466Z" fill="#40689D"/>
<path d="M68.5016 94.7369L61.0522 90.6883C61.2142 90.5264 61.2142 90.3644 61.3761 90.0405L68.8255 94.0891C68.6636 94.413 68.5016 94.5749 68.5016 94.7369Z" fill="#40689D"/>
<path d="M68.8254 94.2511L61.376 90.2025C61.5379 90.0406 61.6999 89.8786 61.6999 89.7167L69.1493 93.7653C68.9873 93.9272 68.9873 94.0892 68.8254 94.2511Z" fill="#40689D"/>
<path d="M69.1496 93.7653L61.7002 89.7167C61.8621 89.5547 62.0241 89.3928 62.186 89.2308L69.6354 93.2794C69.4735 93.4414 69.3115 93.6033 69.1496 93.7653Z" fill="#40689D"/>
<path d="M69.6349 93.2794L62.1855 89.2309L62.3475 89.0689C62.5094 88.907 62.5094 88.907 62.6714 88.907L70.1208 92.9556C69.9588 92.9556 69.9588 93.1175 69.6349 93.2794Z" fill="#40689D"/>
<path d="M70.1213 92.7935L62.6719 88.745C62.8338 88.583 63.1577 88.4211 63.3196 88.4211L70.769 92.4697C70.6071 92.6316 70.4451 92.7935 70.1213 92.7935Z" fill="#40689D"/>
<path d="M68.0159 95.8705L60.2427 93.6033C60.5666 88.0972 64.1293 87.9352 64.6151 87.9352C65.101 87.9352 65.5868 87.9352 66.0726 87.9352L74.8176 92.7935C74.3317 92.6316 72.5504 92.6316 72.0645 92.7935C71.5787 92.7935 70.607 94.0891 70.2832 94.251" fill="#40689D"/>
<path d="M73.6838 92.1458L66.2344 88.0972C66.3963 88.0972 66.7202 88.2592 66.8821 88.4211L74.3316 92.4697C74.1696 92.3077 73.8457 92.3077 73.6838 92.1458Z" fill="#40689D"/>
<path d="M74.3317 92.4697L66.8823 88.4211H67.0443L74.3317 92.4697Z" fill="#40689D"/>
<path d="M178.151 30.0585L178.153 30.0581C179.091 29.9019 180.035 30.2124 180.832 30.6893C182.563 32.1108 182.885 34.9596 181.297 37.024L181.296 37.024L181.294 37.0275L104.533 146.339C103.738 147.452 102.467 148.244 101.364 148.403C100.489 148.482 99.7793 148.362 99.1914 148.088C98.6038 147.813 98.131 147.382 97.7343 146.827L68.4242 99.8661L68.4242 99.866L68.4226 99.8635C67.1611 97.9713 67.7869 94.9516 69.8578 93.3586L69.8583 93.3593L69.8676 93.35C70.4972 92.7204 71.2817 92.4077 72.0641 92.4077V92.4083L72.0751 92.4071C73.505 92.2482 74.9196 92.7253 75.7038 93.9799C75.7039 93.98 75.7039 93.98 75.704 93.9801L101.777 135.923L101.856 136.052L101.943 135.928L174.816 32.2867C174.816 32.2863 174.817 32.2859 174.817 32.2855C175.777 31.0063 177.05 30.2157 178.151 30.0585Z" fill="#B4D1FA" stroke="black" stroke-width="0.2"/>
<path d="M67.3683 168.907L59.9189 164.858C60.5667 165.182 61.2145 165.506 62.0242 165.83L69.4736 169.879C68.6639 169.555 68.0161 169.231 67.3683 168.907Z" fill="#671D28"/>
<path d="M68.9878 170.041L61.8623 165.83C65.2631 167.449 68.8259 168.745 72.5506 169.717L80 173.765C76.2753 172.956 72.3886 171.822 68.9878 170.041Z" fill="#6A1D2A"/>
<path d="M80.0002 174.737L72.5508 169.879C79.8382 171.822 87.7735 172.308 96.0326 171.174C102.996 170.202 109.636 168.097 115.952 165.182L123.401 169.231C117.085 172.146 110.446 174.251 103.482 175.223C95.2228 176.356 87.2876 175.871 80.0002 173.927" fill="#6E1E2B"/>
<path d="M122.753 169.555L115.303 165.506C119.028 163.725 122.753 161.619 126.153 159.19L135.06 163.239C131.821 165.668 126.639 167.773 122.753 169.555Z" fill="#6A1D2A"/>
<path d="M132.955 164.211L125.83 159.352C128.745 157.409 132.631 154.494 135.222 152.227L142.672 156.275C139.919 158.705 140.728 162.429 137.975 164.373" fill="#671D28"/>
<path d="M142.51 158.381L135.223 152.227C137.652 149.96 139.919 147.692 142.186 145.263L149.636 149.312C147.368 151.741 149.636 154.494 147.206 156.599" fill="#641C27"/>
<path d="M150.445 152.389L142.024 145.263C142.672 144.454 143.319 143.644 143.967 142.996C145.425 141.215 146.72 139.433 148.016 137.652L161.295 140.081C160 141.862 156.275 145.749 154.817 147.53C154.17 148.178 153.684 149.15 153.036 149.96" fill="#601B26"/>
<path d="M155.466 141.7L148.178 137.652C150.122 134.737 152.065 131.822 153.684 128.745L165.182 132.794C163.401 135.709 157.571 138.785 155.466 141.7Z" fill="#5D1A24"/>
<path d="M162.591 135.385L153.684 128.583C155.627 124.858 157.409 121.134 158.866 117.247L170.688 120C169.069 123.887 166.963 131.012 165.02 134.575" fill="#5A1923"/>
<path d="M170.85 123.239L158.704 117.247C162.105 108.178 163.886 98.4616 163.886 88.4211C163.886 87.7734 164.048 87.1256 164.21 86.6398L175.384 88.0973C175.222 88.745 173.927 92.7936 173.927 93.4414C173.927 103.482 175.87 109.312 172.469 118.381" fill="#561822"/>
<path d="M171.821 90.6882L164.372 86.6397C164.534 86.3158 164.534 86.1538 164.696 85.9919L172.145 90.0405C171.983 90.2024 171.821 90.3643 171.821 90.6882Z" fill="#5A1923"/>
<path d="M164.049 86.9636L164.697 85.83C164.859 85.668 165.02 85.5061 165.182 85.1822L172.47 89.2308C172.308 89.5547 172.146 89.7166 172.146 89.8785" fill="#5D1A24"/>
<path d="M172.47 89.3928L165.021 85.3442C165.021 85.1822 165.182 85.0203 165.344 84.8583L172.794 88.9069C172.632 89.0689 172.632 89.2308 172.47 89.3928Z" fill="#601B26"/>
<path d="M172.794 89.0688L165.344 84.8583C165.506 84.6964 165.668 84.5344 165.83 84.3725L173.765 88.2591C173.603 88.4211 172.956 88.9069 172.794 89.0688Z" fill="#641C27"/>
<path d="M173.279 88.421L165.83 84.3724C165.992 84.2105 166.154 84.0485 166.316 83.8866L174.575 87.7732C174.413 87.9352 173.441 88.2591 173.279 88.421Z" fill="#671D28"/>
<path d="M173.765 87.9352L166.315 83.8866C166.477 83.7247 166.801 83.5627 166.963 83.5627L174.413 87.6113C174.251 87.7733 174.089 87.7733 173.765 87.9352Z" fill="#6A1D2A"/>
<path d="M173.927 91.66L164.049 87.1255C164.373 86.9636 164.697 83.7247 168.259 83.4008C168.745 83.4008 169.717 83.2389 170.689 83.7247L178.948 88.2591C178.462 88.0972 177.814 89.2308 177.328 89.3927C177.004 89.3927 176.195 89.5547 175.709 89.7166" fill="#561822"/>
<path d="M177.328 87.2875L169.878 83.2389C170.04 83.2389 170.364 83.4008 170.526 83.5628L177.976 87.6114C177.652 87.4494 177.49 87.2875 177.328 87.2875Z" fill="#6A1D2A"/>
<path d="M177.976 87.6113L170.526 83.5627H170.688L177.976 87.6113Z" fill="#671D28"/>
<path d="M97.652 22.0243L96.3564 15.5466C96.8423 15.5466 97.3281 15.5466 97.8139 15.5466L106.073 19.919C105.749 19.7571 102.996 20.7288 102.51 20.8907" fill="#6E1E2B"/>
<path d="M105.263 19.5952L97.814 15.5466C97.9759 15.5466 98.2998 15.7085 98.4617 15.8705L105.911 19.919C105.749 19.7571 105.587 19.7571 105.263 19.5952Z" fill="#6A1D2A"/>
<path d="M106.073 19.919L98.6235 15.8704H98.7855L106.073 19.919Z" fill="#671D28"/>
<path d="M62.8344 177.49L55.385 173.441C50.6887 170.85 46.1543 167.611 42.2676 163.887C28.5024 150.931 19.9194 131.498 19.9194 108.664C19.9194 97.4899 22.0247 86.4777 25.7494 76.1133L33.1988 80.1619C30.4458 87.9352 27.3688 101.376 27.3688 112.713C27.3688 135.385 35.7899 154.98 49.717 167.935C53.7656 171.66 58.1381 174.899 62.8344 177.49Z" fill="#561822"/>
<path d="M33.1989 80.3239L25.7495 76.2754C27.3689 71.9029 29.3123 67.3685 31.5795 63.3199L39.5147 66.7207C37.2475 70.7693 34.8183 75.7895 33.1989 80.3239Z" fill="#5A1923"/>
<path d="M41.7815 68.6639L31.5791 63.3198C33.5224 59.757 35.4657 56.5182 37.7329 53.2793L52.6317 53.1174C50.3645 56.3562 45.8301 62.3481 44.0487 65.749" fill="#5D1A24"/>
<path d="M45.1823 57.328L37.7329 53.2794C39.1904 51.1742 40.6479 49.2308 42.2673 47.2875C43.077 46.3159 44.2106 45.0203 45.0204 44.0486L56.6803 46.8017C55.8706 47.6114 52.7936 53.9272 52.1459 54.8988C50.8503 56.8422 46.6398 55.2227 45.1823 57.328Z" fill="#601B26"/>
<path d="M45.0205 44.0486L52.308 36.7612C55.2229 34.1701 59.4335 30.9312 62.6723 28.664L68.9881 33.5223C65.9112 35.6276 56.5185 45.9919 53.4416 48.745" fill="#671D28"/>
<path d="M66.7208 35.6276L61.5386 29.4737C65.4252 26.7207 69.7977 24.1296 74.0082 22.1863L89.5548 24.6154C85.1823 26.7207 73.0366 36.4373 69.1499 39.0284" fill="#6A1D2A"/>
<path d="M81.4577 26.3968L74.0083 22.3482C81.1338 18.9474 88.5832 16.6802 96.3565 15.5466L105.749 19.919C97.9759 20.8907 88.5832 23.1579 81.4577 26.3968Z" fill="#6E1E2B"/>
<path d="M55.6406 160.721L55.6438 160.724C68.1309 171.427 84.0292 177.917 102.848 175.322C121.66 172.727 139.334 162.349 151.656 147.27C163.978 132.355 171.598 112.899 171.598 92.6316C171.598 90.0903 173.505 87.8642 175.887 87.3861C178.25 87.073 180.143 88.8012 180.143 91.336C180.143 113.983 171.57 135.823 157.656 152.649L157.656 152.649C143.904 169.475 124.654 181.443 103.63 184.354C82.607 187.265 63.3662 180.797 49.6236 167.862C35.8795 154.927 27.1449 135.682 27.1449 112.874C27.1449 90.0656 35.8805 68.0635 49.7941 51.2378L49.7951 51.2365C63.3837 34.2508 82.7945 22.6054 103.82 19.6942C106.183 19.3792 108.079 21.1078 108.079 23.6437C108.079 26.1851 106.171 28.4113 103.789 28.8892C84.9764 31.485 68.1138 42.0263 55.7934 57.1027C43.4724 72.1797 35.8518 91.4729 35.8518 111.741C35.8518 132.009 43.3107 149.202 55.6406 160.721Z" fill="#A62E41" stroke="black" stroke-width="0.2"/>
</svg>

<svg width="193" height="200" fill="none" xmlns="http://www.w3.org/2000/svg"><path d="M178.137 29.96l-7.449-4.05h1.457l7.449 4.05h-1.457z" fill="#40689D"/><path d="M179.757 30.122l-7.45-4.05c.162 0 .486.163.648.325l7.449 4.048c-.324-.323-.486-.323-.647-.323zm.647.161l-7.449-4.048h.162l7.287 4.048zM99.109 148.016l-7.45-4.048c-.486-.324-.971-.648-1.295-1.296l7.45 4.049c.323.486.809.971 1.295 1.295zm4.048-9.878l-8.583-6.316L167.45 28.016l7.449 4.049-71.741 106.073z" fill="#40689D"/><path d="M97.651 146.721l-7.287-4.049-29.312-46.963 8.907 2.267 27.692 48.745zm77.248-114.656l-9.555-1.134c.162-.162 2.429-3.239 2.429-3.4l7.45 4.048c-.162.162-.162.324-.324.486z" fill="#40689D"/><path d="M174.089 33.198l-6.316-5.668c.162-.162 1.458-2.105 4.535-1.457l8.097 4.372c-.162.162-5.668 2.268-5.83 2.43" fill="#40689D"/><path d="M175.709 31.093l-7.45-4.049.486-.485 7.45 4.048c-.162.324-.324.486-.486.486z" fill="#40689D"/><path d="M176.195 30.77l-7.45-4.05c.162-.161.486-.323.648-.323l7.449 4.048c-.162 0-.324.162-.647.324zm.809-.487l-7.449-4.048c.486-.162.809-.324 1.295-.324l7.45 4.048c-.486 0-.972.163-1.296.324zM68.502 99.757l-7.45-4.049c-.81-1.295-.81-2.752-.324-4.21l7.45 4.049c-.486 1.457-.486 2.915.324 4.21zm-.324-4.21l-7.449-4.049c.162-.324.162-.486.324-.648l7.45 4.049c-.163.162-.325.324-.325.648zm.324-.81l-7.45-4.049c.162-.162.162-.324.324-.648l7.45 4.05c-.162.323-.324.485-.324.647z" fill="#40689D"/><path d="M68.825 94.251l-7.449-4.049c.162-.161.324-.323.324-.485l7.45 4.048c-.163.162-.163.324-.325.486z" fill="#40689D"/><path d="M69.15 93.765l-7.45-4.048.486-.486 7.45 4.048-.486.486z" fill="#40689D"/><path d="M69.635 93.28l-7.45-4.05.162-.161c.162-.162.162-.162.324-.162l7.45 4.049c-.162 0-.162.162-.486.323zm.486-.487l-7.45-4.048c.163-.162.487-.324.649-.324l7.449 4.049c-.162.162-.324.323-.648.323z" fill="#40689D"/><path d="M68.016 95.87l-7.773-2.267c.324-5.506 3.886-5.668 4.372-5.668h1.458l8.745 4.858c-.486-.161-2.268-.161-2.754 0-.485 0-1.457 1.296-1.78 1.458" fill="#40689D"/><path d="M73.684 92.146l-7.45-4.049c.162 0 .486.162.648.324l7.45 4.049c-.162-.162-.486-.162-.648-.324z" fill="#40689D"/><path d="M74.332 92.47l-7.45-4.049h.162l7.288 4.049z" fill="#40689D"/><path d="M178.151 30.058h.002c.938-.156 1.882.154 2.679.631 1.731 1.422 2.053 4.27.465 6.335h-.001l-.002.004-76.761 109.311c-.795 1.113-2.066 1.905-3.169 2.064-.875.079-1.585-.041-2.173-.315-.587-.275-1.06-.706-1.457-1.261l-29.31-46.96v-.001l-.001-.002c-1.262-1.893-.636-4.912 1.435-6.505h0l.01-.009c.63-.63 1.414-.942 2.196-.942v0h.011c1.43-.16 2.845.317 3.629 1.572 0 0 0 0 0 0l26.073 41.943.079.129.087-.124 72.873-103.641.001-.002c.96-1.279 2.233-2.07 3.334-2.226z" fill="#B4D1FA" stroke="#000" stroke-width=".2"/><path d="M67.368 168.907l-7.45-4.049c.649.324 1.297.648 2.106.972l7.45 4.049c-.81-.324-1.458-.648-2.106-.972z" fill="#671D28"/><path d="M68.988 170.041l-7.126-4.211a60.122 60.122 0 0010.689 3.887L80 173.765c-3.725-.809-7.611-1.943-11.012-3.724z" fill="#6A1D2A"/><path d="M80 174.737l-7.45-4.858c7.288 1.943 15.224 2.429 23.483 1.295 6.963-.972 13.603-3.077 19.919-5.992l7.449 4.049c-6.316 2.915-12.955 5.02-19.919 5.992-8.26 1.133-16.194.648-23.482-1.296" fill="#6E1E2B"/><path d="M122.753 169.555l-7.45-4.049c3.725-1.781 7.45-3.887 10.85-6.316l8.907 4.049c-3.239 2.429-8.421 4.534-12.307 6.316z" fill="#6A1D2A"/><path d="M132.955 164.211l-7.125-4.859c2.915-1.943 6.801-4.858 9.392-7.125l7.45 4.048c-2.753 2.43-1.944 6.154-4.697 8.098" fill="#671D28"/><path d="M142.51 158.381l-7.287-6.154a141.145 141.145 0 006.963-6.964l7.45 4.049c-2.268 2.429 0 5.182-2.43 7.287" fill="#641C27"/><path d="M150.445 152.389l-8.421-7.126c.648-.809 1.295-1.619 1.943-2.267 1.458-1.781 2.753-3.563 4.049-5.344l13.279 2.429c-1.295 1.781-5.02 5.668-6.478 7.449-.647.648-1.133 1.62-1.781 2.43" fill="#601B26"/><path d="M155.466 141.7l-7.288-4.048c1.944-2.915 3.887-5.83 5.506-8.907l11.498 4.049c-1.781 2.915-7.611 5.991-9.716 8.906z" fill="#5D1A24"/><path d="M162.591 135.385l-8.907-6.802c1.943-3.725 3.725-7.449 5.182-11.336L170.688 120c-1.619 3.887-3.725 11.012-5.668 14.575" fill="#5A1923"/><path d="M170.85 123.239l-12.146-5.992c3.401-9.069 5.182-18.785 5.182-28.826 0-.648.162-1.295.324-1.781l11.174 1.457c-.162.648-1.457 4.697-1.457 5.344 0 10.041 1.943 15.871-1.458 24.94" fill="#561822"/><path d="M171.821 90.688l-7.449-4.048c.162-.324.162-.486.324-.648l7.449 4.048c-.162.162-.324.324-.324.648z" fill="#5A1923"/><path d="M164.049 86.964l.648-1.134c.162-.162.323-.324.485-.648l7.288 4.049c-.162.324-.324.486-.324.648" fill="#5D1A24"/><path d="M172.47 89.393l-7.449-4.049c0-.162.161-.324.323-.486l7.45 4.049c-.162.162-.162.324-.324.486z" fill="#601B26"/><path d="M172.794 89.069l-7.45-4.21.486-.486 7.935 3.886c-.162.162-.809.648-.971.81z" fill="#641C27"/><path d="M173.279 88.421l-7.449-4.049.486-.485 8.259 3.886c-.162.162-1.134.486-1.296.648z" fill="#671D28"/><path d="M173.765 87.935l-7.45-4.048c.162-.162.486-.324.648-.324l7.45 4.048c-.162.162-.324.162-.648.324z" fill="#6A1D2A"/><path d="M173.927 91.66l-9.878-4.534c.324-.162.648-3.401 4.21-3.725.486 0 1.458-.162 2.43.324l8.259 4.534c-.486-.162-1.134.972-1.62 1.134-.324 0-1.133.162-1.619.324" fill="#561822"/><path d="M177.328 87.287l-7.45-4.048c.162 0 .486.162.648.324l7.45 4.048c-.324-.162-.486-.324-.648-.324z" fill="#6A1D2A"/><path d="M177.976 87.611l-7.45-4.048h.162l7.288 4.048z" fill="#671D28"/><path d="M97.652 22.024l-1.296-6.477h1.458l8.259 4.372c-.324-.162-3.077.81-3.563.972" fill="#6E1E2B"/><path d="M105.263 19.595l-7.449-4.048c.162 0 .486.162.648.323l7.449 4.049c-.162-.162-.324-.162-.648-.324z" fill="#6A1D2A"/><path d="M106.073 19.919l-7.45-4.049h.162l7.288 4.049z" fill="#671D28"/><path d="M62.834 177.49l-7.449-4.049c-4.696-2.591-9.23-5.83-13.117-9.554-13.766-12.956-22.349-32.389-22.349-55.223 0-11.174 2.106-22.186 5.83-32.55l7.45 4.048c-2.753 7.773-5.83 21.214-5.83 32.551 0 22.672 8.42 42.267 22.348 55.222 4.049 3.725 8.421 6.964 13.117 9.555z" fill="#561822"/><path d="M33.199 80.324l-7.45-4.049c1.62-4.372 3.563-8.907 5.83-12.955l7.936 3.4c-2.267 4.05-4.697 9.07-6.316 13.604z" fill="#5A1923"/><path d="M41.782 68.664L31.579 63.32c1.943-3.563 3.887-6.802 6.154-10.04l14.899-.163c-2.267 3.24-6.802 9.231-8.583 12.632" fill="#5D1A24"/><path d="M45.182 57.328l-7.45-4.049a83.029 83.029 0 014.535-5.992c.81-.971 1.944-2.267 2.753-3.238l11.66 2.753c-.81.81-3.886 7.125-4.534 8.097-1.296 1.943-5.506.324-6.964 2.429z" fill="#601B26"/><path d="M45.02 44.049l7.288-7.288c2.915-2.59 7.126-5.83 10.364-8.097l6.316 4.858c-3.077 2.106-12.47 12.47-15.546 15.223" fill="#671D28"/><path d="M66.72 35.628l-5.181-6.154c3.886-2.753 8.259-5.344 12.47-7.288l15.546 2.43c-4.373 2.104-16.518 11.82-20.405 14.411" fill="#6A1D2A"/><path d="M81.458 26.397l-7.45-4.049a77.598 77.598 0 0122.349-6.801l9.392 4.372c-7.773.972-17.166 3.239-24.291 6.478z" fill="#6E1E2B"/><path d="M55.64 160.721l.004.003c12.487 10.703 28.385 17.193 47.204 14.598 18.812-2.595 36.486-12.973 48.808-28.052 12.322-14.915 19.942-34.371 19.942-54.638 0-2.542 1.907-4.768 4.289-5.246 2.363-.313 4.256 1.415 4.256 3.95 0 22.647-8.573 44.487-22.487 61.313h0c-13.752 16.826-33.002 28.794-54.026 31.705-21.023 2.911-40.264-3.557-54.006-16.492-13.745-12.935-22.48-32.18-22.48-54.988s8.736-44.81 22.65-61.636l.001-.002c13.589-16.985 33-28.63 54.025-31.542 2.363-.315 4.259 1.414 4.259 3.95 0 2.541-1.908 4.767-4.29 5.245-18.813 2.596-35.675 13.137-47.996 28.214-12.32 15.077-19.941 34.37-19.941 54.638s7.459 37.461 19.789 48.98z" fill="#A62E41" stroke="#000" stroke-width=".2"/></svg>
